X:1
T:Title
%%score { 1 | 2 }
L:1/8
Q:1/4=100
M:6/8
K:Bb
V:1 treble nm="Grand Piano"
V:2 bass 
V:1
 [B,DF]>DF B>AG | F2 G D .F2 | [DB]>[DB][EB] [=EB][EA][EG] | A6 | BAB [^Fd][Fd][Fc] | %5
w: William~Kirkpatrick * * * * *|||||
 [GB]>[FA][EG] .[DF]3 | A>GF A>GF | [DB]6 | [Fd]2 [Fd] .[DB]3 | [_DB]>[DA][DG] .[=DF]3 | %10
w: |||||
 d>cd .B2 B | A c2- c2 z | [Fd]2 [Fd] .[DB]3 |[M:7/8] [Gc]>[GB][EG] [=Ec]3 z | %14
w: ||||
[M:3/4] [FB][FA]- [FA]/G/F/B/ z A | c3 .[DFB]3 |] %16
w: ||
V:2
 B,,>D,F, B,>A,G, | F,2 G, D, .F,2 | [B,,F,]>[B,,B,][B,,B,] [C,G,][C,C][C,B,] | [F,CE]6 | %4
 [G,B,D][G,CD][G,B,D] [D,A,][D,A,][D,A,] | [E,G,]>[E,B,][E,B,] .[B,,B,]3 | %6
 [F,CE]>[F,B,E][F,A,E] [F,CE]>[F,B,E][F,A,E] | [B,,F,B,]6 | [B,,B,]2 [B,,B,] .[B,,F,]3 | %9
 [B,,=E,]>[B,,E,][B,,E,] .[B,,F,]3 | [B,F]>[B,EF][B,DF] .[G,DG]2 [G,C=E] | %11
 [F,CE] [F,A,E]2- [F,A,E]2 z | [B,,B,]2 [B,,B,] .[B,,F,]3 |[M:7/8] [E,G,]>[E,G,][E,G,] [C,G,]3 z | %14
[M:3/4] [D,B,][D,B,]- [D,B,]/[E,B,E]/[F,B,D]/[F,B,D]/ z [F,CF] | [F,EF]3 .B,,3 |] %16

